symbols/web/looks_5/materialsymbolsoutlined/looks_5_wght300grad200fill1_40px.svg

<svg xmlns="http://www.w3.org/2000/svg" height="40" width="40"><path d="M15.125 28.417h6.417q1.333 0 2.333-.979 1-.98 1-2.355v-3.166q0-1.375-1-2.355-1-.979-2.333-.979h-3.584v-4.208h6.917v-2.792h-9.75v9.792h6.417q.208 0 .354.167.146.166.146.375v3.166q0 .209-.146.375-.146.167-.354.167h-6.417Zm-6.667 6.458q-1.375 0-2.354-.979-.979-.979-.979-2.354V8.458q0-1.375.979-2.354.979-.979 2.354-.979h23.084q1.375 0 2.354.979.979.979.979 2.354v23.084q0 1.375-.979 2.354-.979.979-2.354.979Z"/></svg>

<svg xmlns="http://www.w3.org/2000/svg" height="40" width="40"><path d="M15.125 28.417H21.542Q22.875 28.417 23.875 27.438Q24.875 26.458 24.875 25.083V21.917Q24.875 20.542 23.875 19.562Q22.875 18.583 21.542 18.583H17.958V14.375H24.875V11.583H15.125V21.375H21.542Q21.75 21.375 21.896 21.542Q22.042 21.708 22.042 21.917V25.083Q22.042 25.292 21.896 25.458Q21.75 25.625 21.542 25.625H15.125ZM8.458 34.875Q7.083 34.875 6.104 33.896Q5.125 32.917 5.125 31.542V8.458Q5.125 7.083 6.104 6.104Q7.083 5.125 8.458 5.125H31.542Q32.917 5.125 33.896 6.104Q34.875 7.083 34.875 8.458V31.542Q34.875 32.917 33.896 33.896Q32.917 34.875 31.542 34.875Z"/></svg>
